static/assets/images/exchanges/pharaoh.svg

<svg width="343" height="256" viewBox="0 0 343 256" fill="none" xmlns="http://www.w3.org/2000/svg">
<path fill-rule="evenodd" clip-rule="evenodd" d="M98.7909 82.6236L117.403 164.677C117.412 164.705 117.401 164.735 117.392 164.763L95.1479 191.39L95.1372 191.476L103.986 255.928H133.817L120.444 45.6796L120.424 45.617L120.378 45.5693L120.317 45.5456L120.251 45.5505C120.219 45.5629 120.193 45.5857 120.176 45.6151L98.8124 82.516C98.7909 82.559 98.7909 82.5913 98.7909 82.6236ZM83.372 255.928L62.4904 146.711C62.4797 146.681 62.4611 146.666 62.4367 146.646C62.419 146.629 62.398 146.616 62.3749 146.608C62.3518 146.599 62.3272 146.596 62.3028 146.598C62.2784 146.6 62.2547 146.608 62.2333 146.619L62.206 146.638L62.1787 146.668L47.8864 171.089L47.8677 171.127L47.8606 171.156C47.8569 171.181 47.8584 171.205 47.8649 171.229L62.8665 223.191C62.8764 223.223 62.8764 223.256 62.8665 223.288L46.3819 248.839V248.946L48.3399 255.928H83.372ZM0.0982403 255.928C-0.0199674 256.09 0.00152907 255.928 0.00152907 255.928H20.6998L13.3482 233.928C13.3381 233.898 13.3194 233.872 13.2945 233.853L13.2347 233.819L13.1664 233.811L13.1004 233.83L13.0474 233.874L0.0982403 255.928ZM244.22 82.6232L225.597 164.677H225.618L225.613 164.722L225.618 164.763L247.852 191.389L247.863 191.409L247.871 191.435L247.873 191.456L247.874 191.475L239.025 255.928H209.191L222.556 45.6793L222.577 45.6131L222.625 45.5634L222.691 45.5408L222.76 45.5502C222.791 45.5626 222.818 45.5854 222.835 45.6148L244.188 82.5157C244.22 82.5587 244.22 82.591 244.22 82.6232ZM259.628 255.928L280.51 146.71C280.519 146.68 280.536 146.653 280.56 146.632C280.584 146.611 280.613 146.597 280.644 146.592C280.675 146.586 280.707 146.589 280.736 146.601L280.781 146.626L280.811 146.656L295.103 171.078C295.118 171.097 295.129 171.119 295.135 171.142V171.218L280.134 223.18L280.127 223.224L280.128 223.25L280.134 223.277L296.618 248.828V248.935L294.658 255.928H259.628ZM342.902 255.928C343.02 256.09 342.998 255.928 342.998 255.928H322.3L329.652 233.928C329.659 233.899 329.674 233.873 329.695 233.852L329.755 233.818L329.823 233.81L329.889 233.83L329.942 233.874L342.902 255.928Z" fill="#D54B4B"/>
<path d="M163.878 255.928H179.109H182.47L190.713 13.4156L185.938 4.20059L183.673 0C179.607 0.15113 175.539 0.218306 171.471 0.201528C167.421 0.217554 163.372 0.150378 159.324 0L156.969 4.369L152.273 13.4156L160.516 255.928H163.878Z" fill="#D54B4B"/>
<path d="M196.547 152.699L186.668 138.331L182.661 255.928H189.347L196.547 152.699Z" fill="#D54B4B"/>
<path d="M156.329 138.327L146.441 152.703L153.646 255.928H160.336L156.329 138.327Z" fill="#D54B4B"/>
</svg>

<svg xmlns="http://www.w3.org/2000/svg" fill="none" viewBox="0 0 343 256"><path fill="#D54B4B" fill-rule="evenodd" d="m98.79 82.624 18.613 82.053c.009.028-.002.058-.011.086L95.148 191.39l-.01.086 8.848 64.452h29.831L120.444 45.68l-.02-.063-.046-.048-.061-.023-.066.005a.15.15 0 0 0-.075.064L98.812 82.516c-.021.043-.021.075-.021.108M83.373 255.928 62.49 146.711c-.01-.03-.029-.045-.053-.065a.2.2 0 0 0-.062-.038.2.2 0 0 0-.072-.01.2.2 0 0 0-.07.021l-.027.019-.027.03-14.293 24.421-.018.038-.007.029a.2.2 0 0 0 .004.073l15.002 51.962q.015.049 0 .097l-16.485 25.551v.107l1.958 6.982zm-83.274 0c-.118.162-.096 0-.096 0H20.7l-7.352-22a.16.16 0 0 0-.054-.075l-.06-.034-.068-.008-.066.019-.053.044zM244.22 82.623l-18.623 82.054h.021l-.005.045.005.041 22.234 26.626.011.02.008.026.002.021.001.019-8.849 64.453h-29.834l13.365-210.249.021-.066.048-.05.066-.022.069.01a.15.15 0 0 1 .075.064l21.353 36.9a.16.16 0 0 1 .032.108m15.408 173.305L280.51 146.71a.17.17 0 0 1 .134-.118.16.16 0 0 1 .092.009l.045.025.03.03 14.292 24.422a.2.2 0 0 1 .032.064v.076l-15.001 51.962-.007.044.001.026.006.027 16.484 25.551v.107l-1.96 6.993zm83.274 0c.118.162.096 0 .096 0H322.3l7.352-22a.16.16 0 0 1 .043-.076l.06-.034.068-.008.066.02.053.044z" clip-rule="evenodd"/><path fill="#D54B4B" d="M163.878 255.928h18.592l8.243-242.512-4.775-9.215L183.673 0a296 296 0 0 1-12.202.202A296 296 0 0 1 159.324 0l-2.355 4.369-4.696 9.047 8.243 242.512zm32.669-103.229-9.879-14.368-4.007 117.597h6.686zm-40.218-14.372-9.888 14.376 7.205 103.225h6.69z"/></svg>
